svg/u1f910.svg

<svg viewBox="0 0 128 128" xmlns="http://www.w3.org/2000/svg">
  <g id="gold">
    <radialGradient id="face_1_" cx="63.6" cy="1400.9" gradientTransform="matrix(1 0 0 1 0 -1338)" gradientUnits="userSpaceOnUse" r="56.9597">
      <stop offset="0.5" stop-color="#FDE030"/>
      <stop offset="0.92" stop-color="#F7C02B"/>
      <stop offset="1" stop-color="#F4A223"/>
    </radialGradient>
    <path id="face" d="M63.6,118.8c-27.9,0-58-17.5-58-55.9S35.7,7,63.6,7c15.5,0,29.8,5.1,40.4,14.4 c11.5,10.2,17.6,24.6,17.6,41.5s-6.1,31.2-17.6,41.4C93.4,113.6,79,118.8,63.6,118.8z" fill="url(#face_1_)"/>
    <path d="M111.49,29.67c5.33,8.6,8.11,18.84,8.11,30.23c0,16.9-6.1,31.2-17.6,41.4 c-10.6,9.3-25,14.5-40.4,14.5c-18.06,0-37-7.35-48.18-22.94c10.76,17.66,31,25.94,50.18,25.94c15.4,0,29.8-5.2,40.4-14.5 c11.5-10.2,17.6-24.5,17.6-41.4C121.6,50.16,118.13,38.84,111.49,29.67z" fill="#EB8F00"/>
  </g>
  <g id="facial_expressions">
    <g id="zipper-mouth-face">
      <path d="M121.21,93.48l-8.78-6.68c-1.76-1.33-4.11-1.56-6.1-0.61c-0.08-0.1-0.17-0.19-0.28-0.27L103.63,84 c-1.55-1.23-2.45-3.1-2.45-5.08v-2.56c0-1.42-1.16-2.58-2.58-2.58l0,0h-3.33c-1.42,0-2.58,1.16-2.58,2.58l0,0v3.4 c0,1.42-1.16,2.58-2.58,2.58l0,0h-3.33c-1.42-0.01-2.57-1.16-2.57-2.58v-3.4c0-1.42-1.16-2.58-2.58-2.58l0,0H78.3 c-1.42,0-2.58,1.16-2.58,2.58l0,0v3.4c0,1.42-1.16,2.58-2.58,2.58l0,0h-3.32c-1.42,0-2.58-1.16-2.58-2.58l0,0v-3.4 c0-1.42-1.16-2.58-2.58-2.58l0,0h-3.33c-1.42,0-2.58,1.16-2.58,2.58l0,0v3.4c0,1.42-1.16,2.58-2.58,2.58h0h-3.32 c-1.42,0-2.58-1.16-2.58-2.58l0,0v-3.4c0-1.42-1.16-2.58-2.58-2.58h0h-3.33c-1.42,0-2.58,1.16-2.58,2.58l0,0v3.4 c0,1.42-1.16,2.58-2.58,2.58h0h-3.32c-1.42,0-2.58-1.16-2.58-2.58v-3.4c0-1.42-1.16-2.58-2.58-2.58h0h-3.33 c-1.42,0-2.58,1.16-2.58,2.58l0,0v9.27c0.01,1.42,1.16,2.57,2.58,2.58h3.33c1.42,0,2.57,1.15,2.58,2.57v2.14 c-0.01,1.42,1.14,2.57,2.56,2.58c0.01,0,0.01,0,0.02,0h3.32c1.42,0.01,2.57-1.14,2.58-2.56c0-0.01,0-0.01,0-0.02v-2.14 c0.01-1.42,1.16-2.57,2.58-2.57h3.33c1.42,0,2.57,1.15,2.58,2.57v2.14c-0.01,1.42,1.14,2.57,2.56,2.58c0.01,0,0.01,0,0.02,0h3.32 c1.42,0.01,2.57-1.14,2.58-2.56c0-0.01,0-0.01,0-0.02v-2.14c0.01-1.42,1.16-2.57,2.58-2.57h3.33c1.42,0,2.57,1.15,2.58,2.57v2.14 c-0.01,1.42,1.14,2.57,2.56,2.58c0.01,0,0.01,0,0.02,0h3.32c1.42,0.01,2.57-1.14,2.58-2.56c0-0.01,0-0.01,0-0.02v-2.14 c0.01-1.42,1.16-2.57,2.58-2.57h3.33c1.42,0,2.57,1.15,2.58,2.57v2.14c-0.01,1.42,1.14,2.57,2.56,2.58c0,0,0.01,0,0.01,0h3.33 c1.42,0.01,2.57-1.14,2.58-2.56c0-0.01,0-0.01,0-0.02v-2.14c0.01-1.42,1.16-2.57,2.58-2.57h1.15c0.78,0,1.53,0.26,2.14,0.74 l3.15,2.51l0.14,0.08c-0.8,2.38,0.01,5,2,6.52l8.78,6.68c2.6,1.97,6.3,1.46,8.27-1.13l1.42-1.87 C124.28,99.15,123.78,95.46,121.21,93.48z M109.07,95.07c-0.78,1.04-2.25,1.25-3.29,0.48c-0.01-0.01-0.01-0.01-0.02-0.02 c-1.04-0.78-1.25-2.26-0.47-3.3c0.01-0.01,0.01-0.02,0.02-0.03l1.9-2.5c0.77-1.04,2.24-1.25,3.27-0.48 c0.01,0.01,0.02,0.02,0.04,0.03c0.51,0.37,0.84,0.94,0.92,1.56c0.08,0.62-0.08,1.26-0.46,1.76L109.07,95.07z M118.69,99.19 l-1.17,1.54c-0.89,1.17-2.57,1.4-3.74,0.51L112.1,100c-1.17-0.89-1.4-2.57-0.51-3.74l1.18-1.54c0.89-1.17,2.57-1.4,3.74-0.51 l1.67,1.28C119.33,96.38,119.56,98.02,118.69,99.19z" fill="#616161"/>
      <path d="M83.76,38.05L83.76,38.05c3.69,0,7,4.33,7,11.5s-3.35,11.5-7,11.5l0,0c-3.68,0-7-4.32-7-11.5 S80.08,38.05,83.76,38.05z" fill="#422B0D"/>
      <path d="M44.22,38.05L44.22,38.05c-3.69,0-7,4.33-7,11.5s3.35,11.5,7,11.5l0,0c3.69,0,7-4.32,7-11.5 S47.91,38.05,44.22,38.05z" fill="#422B0D"/>
    </g>
    <g id="peepers">
      <path d="M45.05,42.77L45.05,42.77c-1.44-0.67-3.14-0.04-3.81,1.4c-0.51,1.1-0.27,2.4,0.59,3.25l0,0 c1.44,0.67,3.14,0.04,3.81-1.4C46.15,44.92,45.92,43.62,45.05,42.77z" fill="#896024"/>
    </g>
    <g id="peepers-2">
      <path d="M83.21,42.77L83.21,42.77c-1.44-0.66-3.14-0.02-3.8,1.42c-0.5,1.09-0.26,2.38,0.59,3.23l0,0 c1.44,0.67,3.14,0.04,3.81-1.4c0.51-1.1,0.27-2.4-0.59-3.25L83.21,42.77z" fill="#896024"/>
    </g>
  </g>
</svg>

<svg viewBox="0 0 128 128" xmlns="http://www.w3.org/2000/svg">
  <defs>
    <radialGradient id="face_1_" cx="63.6" cy="62.9" gradientUnits="userSpaceOnUse" r="56.9597">
      <stop offset="0.5" stop-color="#FDE030"/>
      <stop offset="0.92" stop-color="#F7C02B"/>
      <stop offset="1" stop-color="#F4A223"/>
    </radialGradient>
  </defs>
  <path id="face" d="M63.6,118.8 C35.7,118.8 5.6,101.3 5.6,62.9 C5.6,24.5 35.7,7 63.6,7 C79.1,7 93.4,12.1 104,21.4 C115.5,31.6 121.6,46 121.6,62.9 C121.6,79.8 115.5,94.1 104,104.3 C93.4,113.6 79,118.8 63.6,118.8 Z" fill="url(#face_1_)"/>
  <path d="M111.49,29.67 C116.82,38.27 119.6,48.51 119.6,59.9 C119.6,76.8 113.5,91.1 102,101.3 C91.4,110.6 77,115.8 61.6,115.8 C43.54,115.8 24.6,108.45 13.42,92.86 C24.18,110.52 44.42,118.8 63.6,118.8 C79,118.8 93.4,113.6 104,104.3 C115.5,94.1 121.6,79.8 121.6,62.9 C121.6,50.16 118.13,38.84 111.49,29.67 Z" fill="#EB8F00"/>
  <path d="M121.21,93.48 L112.43,86.8 C110.67,85.47 108.32,85.24 106.33,86.19 C106.25,86.09 106.16,86 106.05,85.92 L103.63,84 C102.08,82.77 101.18,80.9 101.18,78.92 L101.18,76.36 C101.18,74.94 100.02,73.78 98.6,73.78 L98.6,73.78 L95.27,73.78 C93.85,73.78 92.69,74.94 92.69,76.36 L92.69,76.36 L92.69,79.76 C92.69,81.18 91.53,82.34 90.11,82.34 L90.11,82.34 L86.78,82.34 C85.36,82.33 84.21,81.18 84.21,79.76 L84.21,76.36 C84.21,74.94 83.05,73.78 81.63,73.78 L81.63,73.78 L78.3,73.78 C76.88,73.78 75.72,74.94 75.72,76.36 L75.72,76.36 L75.72,79.76 C75.72,81.18 74.56,82.34 73.14,82.34 L73.14,82.34 L69.82,82.34 C68.4,82.34 67.24,81.18 67.24,79.76 L67.24,79.76 L67.24,76.36 C67.24,74.94 66.08,73.78 64.66,73.78 L64.66,73.78 L61.33,73.78 C59.91,73.78 58.75,74.94 58.75,76.36 L58.75,76.36 L58.75,79.76 C58.75,81.18 57.59,82.34 56.17,82.34 L56.17,82.34 L52.85,82.34 C51.43,82.34 50.27,81.18 50.27,79.76 L50.27,79.76 L50.27,76.36 C50.27,74.94 49.11,73.78 47.69,73.78 L47.69,73.78 L44.36,73.78 C42.94,73.78 41.78,74.94 41.78,76.36 L41.78,76.36 L41.78,79.76 C41.78,81.18 40.62,82.34 39.2,82.34 L39.2,82.34 L35.88,82.34 C34.46,82.34 33.3,81.18 33.3,79.76 L33.3,76.36 C33.3,74.94 32.14,73.78 30.72,73.78 L30.72,73.78 L27.39,73.78 C25.97,73.78 24.81,74.94 24.81,76.36 L24.81,76.36 L24.81,85.63 C24.82,87.05 25.97,88.2 27.39,88.21 L30.72,88.21 C32.14,88.21 33.29,89.36 33.3,90.78 L33.3,92.92 C33.29,94.34 34.44,95.49 35.86,95.5 C35.87,95.5 35.87,95.5 35.88,95.5 L39.2,95.5 C40.62,95.51 41.77,94.36 41.78,92.94 C41.78,92.93 41.78,92.93 41.78,92.92 L41.78,90.78 C41.79,89.36 42.94,88.21 44.36,88.21 L47.69,88.21 C49.11,88.21 50.26,89.36 50.27,90.78 L50.27,92.92 C50.26,94.34 51.41,95.49 52.83,95.5 C52.84,95.5 52.84,95.5 52.85,95.5 L56.17,95.5 C57.59,95.51 58.74,94.36 58.75,92.94 C58.75,92.93 58.75,92.93 58.75,92.92 L58.75,90.78 C58.76,89.36 59.91,88.21 61.33,88.21 L64.66,88.21 C66.08,88.21 67.23,89.36 67.24,90.78 L67.24,92.92 C67.23,94.34 68.38,95.49 69.8,95.5 C69.81,95.5 69.81,95.5 69.82,95.5 L73.14,95.5 C74.56,95.51 75.71,94.36 75.72,92.94 C75.72,92.93 75.72,92.93 75.72,92.92 L75.72,90.78 C75.73,89.36 76.88,88.21 78.3,88.21 L81.63,88.21 C83.05,88.21 84.2,89.36 84.21,90.78 L84.21,92.92 C84.2,94.34 85.35,95.49 86.77,95.5 C86.77,95.5 86.78,95.5 86.78,95.5 L90.11,95.5 C91.53,95.51 92.68,94.36 92.69,92.94 C92.69,92.93 92.69,92.93 92.69,92.92 L92.69,90.78 C92.7,89.36 93.85,88.21 95.27,88.21 L96.42,88.21 C97.2,88.21 97.95,88.47 98.56,88.95 L101.71,91.46 L101.85,91.54 C101.05,93.92 101.86,96.54 103.85,98.06 L112.63,104.74 C115.23,106.71 118.93,106.2 120.9,103.61 L122.32,101.74 C124.28,99.15 123.78,95.46 121.21,93.48 Z M109.07,95.07 C108.29,96.11 106.82,96.32 105.78,95.55 C105.77,95.54 105.77,95.54 105.76,95.53 C104.72,94.75 104.51,93.27 105.29,92.23 C105.3,92.22 105.3,92.21 105.31,92.2 L107.21,89.7 C107.98,88.66 109.45,88.45 110.48,89.22 C110.49,89.23 110.5,89.24 110.52,89.25 C111.03,89.62 111.36,90.19 111.44,90.81 C111.52,91.43 111.36,92.07 110.98,92.57 L109.07,95.07 Z M118.69,99.19 L117.52,100.73 C116.63,101.9 114.95,102.13 113.78,101.24 L112.1,100 C110.93,99.11 110.7,97.43 111.59,96.26 L112.77,94.72 C113.66,93.55 115.34,93.32 116.51,94.21 L118.18,95.49 C119.33,96.38 119.56,98.02 118.69,99.19 Z" fill="#616161"/>
  <path d="M83.76,38.05 L83.76,38.05 C87.45,38.05 90.76,42.38 90.76,49.55 C90.76,56.72 87.41,61.05 83.76,61.05 L83.76,61.05 C80.08,61.05 76.76,56.73 76.76,49.55 C76.76,42.37 80.08,38.05 83.76,38.05 Z" fill="#422B0D"/>
  <path d="M44.22,38.05 L44.22,38.05 C40.53,38.05 37.22,42.38 37.22,49.55 C37.22,56.72 40.57,61.05 44.22,61.05 L44.22,61.05 C47.91,61.05 51.22,56.73 51.22,49.55 C51.22,42.37 47.91,38.05 44.22,38.05 Z" fill="#422B0D"/>
  <path d="M45.05,42.77 L45.05,42.77 C43.61,42.1 41.91,42.73 41.24,44.17 C40.73,45.27 40.97,46.57 41.83,47.42 L41.83,47.42 C43.27,48.09 44.97,47.46 45.64,46.02 C46.15,44.92 45.92,43.62 45.05,42.77 Z" fill="#896024"/>
  <path d="M83.21,42.77 L83.21,42.77 C81.77,42.11 80.07,42.75 79.41,44.19 C78.91,45.28 79.15,46.57 80,47.42 L80,47.42 C81.44,48.09 83.14,47.46 83.81,46.02 C84.32,44.92 84.08,43.62 83.22,42.77 L83.21,42.77 Z" fill="#896024"/>
</svg>
